rendimentus/src/assests/contact.svg

<?xml version="1.0" encoding="iso-8859-1"?>
<!-- Generator: Adobe Illustrator 19.0.0, SVG Export Plug-In . SVG Version: 6.00 Build 0)  -->
<svg version="1.1" id="Capa_1" xmlns="http://www.w3.org/2000/svg" xmlns:xlink="http://www.w3.org/1999/xlink" x="0px" y="0px"
	 viewBox="0 0 511.874 511.874" style="enable-background:new 0 0 511.874 511.874;" xml:space="preserve">
<g>
	<g>
		<g>
			<path d="M490.114,12.813H132.568c-12.012,0.014-21.746,9.748-21.76,21.76v98.62l-16.35-24.525
				c-7.484-11.289-22.535-14.676-34.133-7.68l-33.638,20.224c-11.016,6.464-19.097,16.946-22.545,29.244
				c-12.271,44.681-3.166,121.66,109.824,234.667C203.821,474.885,270.816,499.06,316.99,499.06
				c10.69,0.049,21.339-1.34,31.659-4.13c12.293-3.448,22.775-11.518,29.252-22.519l20.198-33.673
				c6.968-11.589,3.584-26.609-7.68-34.091l-80.546-53.692c-11.049-7.308-25.859-4.905-34.031,5.521l-23.45,30.148
				c-2.451,3.226-6.897,4.166-10.445,2.21l-4.463-2.458c-14.686-8.004-32.964-17.971-69.879-54.886
				c-3.994-3.994-7.612-7.731-11.008-11.307h333.517c11.982,0.009,21.713-9.676,21.76-21.658V34.573
				C511.86,22.561,502.126,12.827,490.114,12.813z M229.318,401.362l4.335,2.381c10.897,6.093,24.614,3.266,32.213-6.639
				l23.45-30.148c2.666-3.396,7.49-4.179,11.093-1.801l80.546,53.692c3.659,2.439,4.759,7.321,2.5,11.093l-20.198,33.673
				c-4.218,7.233-11.071,12.553-19.123,14.848c-40.337,11.093-110.933,1.707-218.078-105.446S9.56,195.273,20.627,154.97
				c2.293-8.051,7.61-14.903,14.839-19.123l33.673-20.207c3.773-2.254,8.652-1.155,11.093,2.5l53.717,80.546
				c2.382,3.602,1.599,8.43-1.801,11.093l-30.157,23.458c-9.903,7.597-12.731,21.311-6.639,32.205l2.389,4.335
				c8.533,15.65,19.14,35.123,57.805,73.779C194.212,382.213,213.677,392.828,229.318,401.362z M494.808,298.526
				c-0.028,2.567-2.127,4.627-4.693,4.608H141.203c-11.083-12.674-20.64-26.604-28.476-41.506l-2.458-4.48
				c-1.96-3.54-1.022-7.982,2.202-10.428l30.157-23.458c10.43-8.17,12.833-22.982,5.521-34.031l-20.275-30.43V34.573
				c-0.014-1.249,0.476-2.451,1.359-3.334c0.883-0.883,2.085-1.373,3.334-1.359h357.547c1.249-0.014,2.451,0.476,3.334,1.359
				c0.883,0.883,1.373,2.085,1.359,3.334V298.526z"/>
			<path d="M460.725,52.323l-142.618,108.16c-4.035,2.932-9.499,2.932-13.534,0L162.008,52.323
				c-3.756-2.849-9.111-2.113-11.959,1.643c-2.849,3.756-2.113,9.111,1.643,11.959l142.583,108.151
				c10.144,7.494,23.989,7.494,34.133,0L471.034,65.925c1.805-1.368,2.992-3.398,3.299-5.642c0.307-2.244-0.29-4.518-1.661-6.321
				C469.824,50.213,464.478,49.48,460.725,52.323z"/>
			<path d="M238.517,174.793l-87.415,93.611c-3.214,3.447-3.025,8.848,0.422,12.062c3.447,3.214,8.848,3.025,12.062-0.422
				l87.416-93.653c2.888-3.484,2.553-8.617-0.762-11.698C246.924,171.612,241.78,171.656,238.517,174.793z"/>
			<path d="M384.728,174.793c-3.214-3.447-8.614-3.637-12.062-0.422c-3.447,3.214-3.637,8.614-0.422,12.062l87.39,93.611
				c3.214,3.447,8.614,3.637,12.062,0.422c3.447-3.214,3.637-8.614,0.422-12.062L384.728,174.793z"/>
		</g>
	</g>
</g>
<g>
</g>
<g>
</g>
<g>
</g>
<g>
</g>
<g>
</g>
<g>
</g>
<g>
</g>
<g>
</g>
<g>
</g>
<g>
</g>
<g>
</g>
<g>
</g>
<g>
</g>
<g>
</g>
<g>
</g>
</svg>

<svg viewBox="0 0 511.874 511.874" xmlns="http://www.w3.org/2000/svg" xmlns:xlink="http://www.w3.org/1999/xlink" id="Capa_1" overflow="hidden"><g><g><g><path d="M490.114 12.813 132.568 12.813C120.556 12.827 110.822 22.561 110.808 34.573L110.808 133.193 94.458 108.668C86.974 97.379 71.923 93.992 60.325 100.988L26.687 121.212C15.671 127.676 7.59 138.158 4.142 150.456-8.129 195.137 0.976 272.116 113.966 385.123 203.821 474.885 270.816 499.06 316.99 499.06 327.68 499.109 338.329 497.72 348.649 494.93 360.942 491.482 371.424 483.412 377.901 472.411L398.099 438.738C405.067 427.149 401.683 412.129 390.419 404.647L309.873 350.955C298.824 343.647 284.014 346.05 275.842 356.476L252.392 386.624C249.941 389.85 245.495 390.79 241.947 388.834L237.484 386.376C222.798 378.372 204.52 368.405 167.605 331.49 163.611 327.496 159.993 323.759 156.597 320.183L490.114 320.183C502.096 320.192 511.827 310.507 511.874 298.525L511.874 34.573C511.86 22.561 502.126 12.827 490.114 12.813ZM229.318 401.362 233.653 403.743C244.55 409.836 258.267 407.009 265.866 397.104L289.316 366.956C291.982 363.56 296.806 362.777 300.409 365.155L380.955 418.847C384.614 421.286 385.714 426.168 383.455 429.94L363.257 463.613C359.039 470.846 352.186 476.166 344.134 478.461 303.797 489.554 233.201 480.168 126.056 373.015 18.911 265.862 9.56 195.273 20.627 154.97 22.92 146.919 28.237 140.067 35.466 135.847L69.139 115.64C72.912 113.386 77.791 114.485 80.232 118.14L133.949 198.686C136.331 202.288 135.548 207.116 132.148 209.779L101.991 233.237C92.088 240.834 89.26 254.548 95.352 265.442L97.741 269.777C106.274 285.427 116.881 304.9 155.546 343.556 194.212 382.213 213.677 392.828 229.318 401.362ZM494.808 298.526C494.78 301.093 492.681 303.153 490.115 303.134L141.203 303.134C130.12 290.46 120.563 276.53 112.727 261.628L110.269 257.148C108.309 253.608 109.247 249.166 112.471 246.72L142.628 223.262C153.058 215.092 155.461 200.28 148.149 189.231L127.874 158.801 127.874 34.573C127.86 33.324 128.35 32.122 129.233 31.239 130.116 30.356 131.318 29.866 132.567 29.88L490.114 29.88C491.363 29.866 492.565 30.356 493.448 31.239 494.331 32.122 494.821 33.324 494.807 34.573L494.807 298.526Z" fill="#FFFFFF"/><path d="M460.725 52.323 318.107 160.483C314.072 163.415 308.608 163.415 304.573 160.483L162.008 52.323C158.252 49.474 152.897 50.21 150.049 53.966 147.2 57.722 147.936 63.077 151.692 65.925L294.275 174.076C304.419 181.57 318.264 181.57 328.408 174.076L471.034 65.925C472.839 64.557 474.026 62.527 474.333 60.283 474.64 58.039 474.043 55.765 472.672 53.962 469.824 50.213 464.478 49.48 460.725 52.323Z" fill="#FFFFFF"/><path d="M238.517 174.793 151.102 268.404C147.888 271.851 148.077 277.252 151.524 280.466 154.971 283.68 160.372 283.491 163.586 280.044L251.002 186.391C253.89 182.907 253.555 177.774 250.24 174.693 246.924 171.612 241.78 171.656 238.517 174.793Z" fill="#FFFFFF"/><path d="M384.728 174.793C381.514 171.346 376.114 171.156 372.666 174.371 369.219 177.585 369.029 182.985 372.244 186.433L459.634 280.044C462.848 283.491 468.248 283.681 471.696 280.466 475.143 277.252 475.333 271.852 472.118 268.404L384.728 174.793Z" fill="#FFFFFF"/></g></g></g><g></g><g></g><g></g><g></g><g></g><g></g><g></g><g></g><g></g><g></g><g></g><g></g><g></g><g></g><g></g></svg>
